X: 13545
T: Flowing Bowl, The
R: reel
M: 4/4
K: Dmajor
ef||gfed cAAB|cAeA cdef|gfed cAAe|fage d2ef|
gfed cAAB|cAeA cdef|gfed cAAe|fage d3A||
Aded aded|Aded cdec|Aded aded|fage dcBc|
Aded aded|Aded cdec|Aded efge|afge d2||

